X:1
T:Title
%%score { ( 1 3 ) | ( 2 4 5 ) }
L:1/8
M:4/4
K:Bb
V:1 treble nm="Grand Piano"
V:3 treble 
V:2 bass 
V:4 bass 
V:5 bass 
V:1
 z4 z2[Q:1/4=92] [DF][DB] | [Fd]2 [EA][FB] cBBG | [DF] [DB]3- [DB]2 [DF][DB] | %3
 [Fd]2 [Ge][Fd] [=Ec][EG][EA][EB] | [Ec]6 [DF][DB] | [Fd]2 [EA][FB] cBBG | %6
 [DF] [DB]3- [DB]2 [DFc][_DFB] | [CFA]2 [Fd][Fc] [=EB]<[DE] [EA]>[EG] |[M:3/4] F6 |[M:1/4] F=E | %10
[M:4/4] E2 c=B d<c GA | [DF]F-[DFG][FB] [FBd]2 [DF][D^F] | G2 ^FG [=Ed][Ec][EG][E_A] | %13
 AAB=B c2 FF | [Fd][Fd][Ge][Fd] [=Ec][EG][E^F][EG] | AAB[Gc] [^Fd][Fd][=Fe][Fd] | %16
 [=Ec]2 [EG][EB] B<A d>c |[M:3/4] B-<[DB-] [EB-]>[EB-] [DB]2 |] %18
V:2
 z4 z2 [B,,B,][B,,F,] | [B,,B,]2 [C,F,][D,B,] [E,G,E][E,G,E][E,G,E][E,B,E] | %2
 [B,,B,] [B,,F,]3- [B,,F,]2 [B,,B,][B,,F,] | [B,,B,]2 [B,,B,][B,,B,] [C,B,][C,C][C,C][C,G,] | %4
 [F,A,]6 [B,,B,][B,,F,] | [B,,B,]2 [C,F,][D,B,] [E,G,E][E,G,E][E,G,E][E,B,E] | %6
 [B,,B,] [B,,B,]3- [B,,B,]2 B,,B,, | C,2 [C,A,][C,A,] [C,G,]<[C,G,] [C,C]>[C,B,] | %8
[M:3/4] [F,A,C]6 |[M:1/4] [F,B,D][F,G,_D] | %10
[M:4/4] [F,A,C]2 [F,A,E][F,_A,D] [F,=A,F]<[F,A,E] [F,B,E][F,CE] | z2 B,4 z2 | %12
 [E,B,E]2 [E,B,E][E,B,E] [C,B,][C,G,][C,C][C,C] | %13
 [F,CE][F,CE][K:treble][G,C=E][_A,DF] [=A,CF]2[K:bass] [F,A,_E][F,A,E] | %14
 [B,,B,][B,,B,][B,,B,][B,,B,] [C,G,][C,C][C,C][C,C] | %15
 [F,CE][^F,CE][G,CD][E,G,] [D,A,][D,A,][G,=B,][G,B,] | %16
 [C,C]2 [C,C][C,C] [F,CE]<[F,CE] [F,A,F]>[F,E] |[M:3/4] F,<F, G,>G, F,2 |] %18
V:3
 x8 | x8 | x8 | x8 | x8 | x8 | x8 | x8 |[M:3/4] x6 |[M:1/4] x2 |[M:4/4] x8 | z D z2 z4 | x8 | x8 | %14
 x8 | x8 | x8 |[M:3/4] .D2 z2 z2 |] %18
V:4
 x8 | x8 | x8 | x8 | x8 | x8 | x8 | x8 |[M:3/4] x6 |[M:1/4] x2 |[M:4/4] x8 | %11
 B,-[F,B,] z D- D2 [B,,B,][B,,B,] | x8 | x2[K:treble] x4[K:bass] x2 | x8 | x8 | x8 |[M:3/4] B,,6 |] %18
V:5
 x8 | x8 | x8 | x8 | x8 | x8 | x8 | x8 |[M:3/4] x6 |[M:1/4] x2 |[M:4/4] x8 | B,,6 z2 | x8 | %13
 x2[K:treble] x4[K:bass] x2 | x8 | x8 | x8 |[M:3/4] x6 |] %18

